**kern	**silbe
*ICvox	*
*B:	*
*M12/8	*
*clefG2	*
r;	.
=1	=1
1.r	.
=2	=2
1.r	.
=3	=3
4.B	There's
4.B	a
4.c#	world
4.B	where
=4	=4
4.d#	I
4.d#	can
4.e	go
4d#	and
8r	.
=5	=5
4.f#	tell
4.f#	my
4.g#	se-
4.e	-crets
=6	=6
2.f#	to.
8r	.
8r	.
8[f#	In
8f#]	_
4d#	my
=7	=7
1.[c#	room,
=8	=8
2.c#]	_
8r	.
8r	.
8[e	in
8e]	_
4d#	my
=9	=9
1.[B	room.
=10	=10
2.B]	_
2.r	.
=11	=11
4.B	In
4.B	this
4.c#	world
4.B	I
=12	=12
4.d#	lock
4.d#	out
4.e	all
4d#	my
8r	.
=13	=13
4.f#	wor-
4.f#	-ries
4.g#	and
4.e	my
=14	=14
2.f#	fears.
8r	.
8r	.
8[f#	In
8f#]	_
4d#	my
=15	=15
1.[c#	room,
=16	=16
2.c#]	_
8r	.
8r	.
8[e	in
8e]	_
4d#	my
=17	=17
1.[B	room.
=18	=18
2.B]	_
2.r	.
=19	=19
4.G#	Do
4.G#	my
4.D#	dream-
4.G#	-ing
=20	=20
4.F#	and
4.F#	my
4.G#	sche-
4F#	-ming
8r	.
=21	=21
4.G#	lie
4.F#	a-
4.D#	-wake
4.C#	and
=22	=22
4.D#	pray?
4.F#	_
4.r	.
4.r	.
=23	=23
4.d#	Do
4.d#	my
4.B	cry-
4.d#	-ing
=24	=24
4.c#	and
4.c#	my
4.A#	sigh-
4c#	-ing
8r	.
=25	=25
4.e	laugh
4.e	at
4.B	yes-
4.e	-ter-
=26	=26
1.f#	-day?
=27	=27
4.B	Now
4.B	it's
4.c#	dark
4.B	and
=28	=28
4.d#	I'm
4.d#	a-
4.e	-lone
4d#	but
8r	.
=29	=29
4.f#	I
4.f#	won't
4.g#	be
4.e	a-
=30	=30
2.f#	-fraid.
8r	.
8r	.
8[f#	In
8f#]	_
4d#	my
=31	=31
1.[c#	room,
=32	=32
2.c#]	_
8r	.
8r	.
8[e	in
8e]	_
4d#	my
=33	=33
1.[B	room,
=34	=34
1.B]	_
=35	=35
1.[b	room,
=36	=36
2.b_	_
4.b]	_
8r	.
4f#	my
=37	=37
1.[b	room.
=38	=38
1.b]	_
r;	.
r;	.
*-	*-
!!!ENC: Nathaniel Condit-Schultz